public/img/7.svg

<svg width="217" height="275" viewBox="0 0 217 275" fill="none" xmlns="http://www.w3.org/2000/svg">
<g opacity="0.7">
<g clip-path="url(#clip0)">
<mask id="mask0" mask-type="alpha" maskUnits="userSpaceOnUse" x="-111" y="-77" width="535" height="535">
<path fill-rule="evenodd" clip-rule="evenodd" d="M-18.5982 165.09C-21.4234 173.399 -23.7394 181.856 -25.5761 190.296L83.3054 82.5632C81.2837 82.5318 79.2608 82.482 77.2405 82.4323C73.9429 82.3511 70.6524 82.2702 67.3855 82.2694L-18.5982 165.09ZM-9.56917 142.843L50.1091 83.5039C41.6287 84.9815 33.5412 88.1037 26.177 94.464C11.0651 107.516 -0.722096 124.355 -9.56917 142.843ZM95.0536 82.4039L-28.7912 208.278C-29.5976 213.867 -30.3163 219.541 -30.9055 225.249L117.46 77.7429C110.259 80.7758 102.719 81.9858 95.0536 82.4039ZM154.206 41.2106L222.748 -26.9338C219.681 -26.8543 216.553 -26.4847 213.363 -25.7956C191.12 -20.9906 177.755 1.68069 164.004 25.0072C160.798 30.4454 157.571 35.9193 154.206 41.2106ZM234.854 -25.7337L-31.9594 237.583C-32.3945 244.114 -32.6222 250.64 -32.5809 257.083L241.249 -23.8565C239.154 -24.6147 237.022 -25.2446 234.854 -25.7337ZM248.99 -20.4024L-32.1779 268.971C-31.9853 272.014 -31.7212 275.028 -31.3787 278.002L260.273 -12.9715C256.662 -15.8186 252.899 -18.3261 248.99 -20.4024ZM263.996 -9.87368L-29.7291 288.87C-28.8879 293.269 -27.8413 297.55 -26.5644 301.682L275.318 1.62286C271.746 -2.51502 267.969 -6.39174 263.996 -9.87368ZM284.335 13.154L-23.662 309.821C-21.7251 314.567 -19.4252 319.063 -16.7177 323.254L289.294 20.4699C287.703 18.0041 286.049 15.5587 284.335 13.154ZM292.413 25.452L-9.63906 332.454C-9.49419 332.612 -9.3485 332.77 -9.20199 332.927C-7.10731 335.173 -4.88968 337.237 -2.56152 339.13L299.765 38.5567C299.394 37.7909 299.006 37.0316 298.601 36.279C296.673 32.698 294.609 29.068 292.413 25.452ZM302.852 46.1637L2.16962 342.645C6.50751 345.584 11.1617 348.015 16.0648 349.991L304.822 53.2299C304.276 50.8311 303.624 48.4739 302.852 46.1637ZM306.392 62.2913L24.5914 352.912C27.252 353.675 29.9685 354.325 32.7319 354.87L307.354 80.9321C307.389 74.5658 307.143 68.3265 306.392 62.2913ZM307.2 88.3494L43.3515 356.439C48.0918 356.922 52.9285 357.143 57.8199 357.134L306.035 110.33C306.129 108.7 306.227 107.07 306.324 105.442C306.667 99.7047 307.009 93.99 307.2 88.3494ZM305.278 130.038L69.9969 356.664C77.6392 356.104 85.33 355.063 92.9159 353.665L305.628 143.197C305.338 138.858 305.244 134.463 305.278 130.038ZM306.561 151.841L112.862 348.714C127.468 342.845 139.544 330.075 151.71 317.21C164.186 304.017 176.757 290.724 192.248 284.67L310.119 167.483C308.614 162.245 307.369 157.023 306.561 151.841ZM313.164 177.215L208.106 280.897C213.027 280.364 218.029 280.323 223.067 280.594L315.959 185.29C315.005 182.6 314.065 179.907 313.164 177.215ZM321.974 202.264L243.577 282.948C245.618 283.264 247.656 283.59 249.688 283.915C251.664 284.232 253.635 284.547 255.596 284.85L325.886 214.724C324.736 210.604 323.4 206.446 321.974 202.264ZM328.1 223.805L266.589 286.367C273.049 287.105 279.353 287.473 285.4 287.053L329.71 243.01C330.1 236.768 329.431 230.348 328.1 223.805Z" fill="white"/>
</mask>
<g mask="url(#mask0)">
<path d="M179.629 77.4892V82.1693L128.149 203.489H95.2086L135.709 106.289H86.9286V77.4892H179.629Z" fill="white"/>
</g>
</g>
</g>
<defs>
<clipPath id="clip0">
<rect x="0.423828" width="215.608" height="274.079" fill="white"/>
</clipPath>
</defs>
</svg>

<svg width="217" height="275" fill="none" xmlns="http://www.w3.org/2000/svg"><g clip-path="url(#clip0)" opacity=".7"><mask id="a" maskUnits="userSpaceOnUse" x="-111" y="-77" width="535" height="535"><path fill-rule="evenodd" clip-rule="evenodd" d="M-18.598 165.09a231.051 231.051 0 00-6.978 25.206L83.305 82.563c-2.021-.031-4.044-.081-6.065-.13-3.297-.082-6.588-.163-9.855-.164l-85.983 82.821zm9.029-22.247l59.678-59.34c-8.48 1.478-16.568 4.6-23.932 10.961-15.112 13.052-26.9 29.891-35.746 48.379zm104.623-60.44L-28.791 208.279a423.476 423.476 0 00-2.114 16.971L117.46 77.743c-7.201 3.033-14.741 4.243-22.406 4.66zm59.152-41.192l68.542-68.145c-3.067.08-6.195.45-9.385 1.138-22.243 4.805-35.608 27.477-49.359 50.803-3.206 5.438-6.433 10.912-9.798 16.204zm80.648-66.945L-31.959 237.583c-.436 6.531-.663 13.057-.622 19.5l273.83-280.94a53.167 53.167 0 00-6.395-1.877zm14.136 5.332L-32.178 268.97c.193 3.043.457 6.057.8 9.031l291.65-290.973c-3.611-2.847-7.374-5.354-11.283-7.43zm15.006 10.528L-29.729 288.87c.841 4.399 1.888 8.68 3.165 12.812L275.318 1.622c-3.572-4.137-7.349-8.014-11.322-11.496zm20.339 23.028L-23.662 309.821c1.937 4.746 4.237 9.242 6.944 13.433L289.294 20.47a191.345 191.345 0 00-4.959-7.316zm8.078 12.298L-9.639 332.454c.145.158.29.316.437.473a66.028 66.028 0 006.64 6.203L299.765 38.557a60.117 60.117 0 00-1.164-2.278 240.777 240.777 0 00-6.188-10.827zm10.439 20.712L2.17 342.645c4.338 2.939 8.992 5.37 13.895 7.346L304.822 53.23a74.322 74.322 0 00-1.97-7.066zm3.54 16.127l-281.8 290.621a99.058 99.058 0 008.14 1.958L307.354 80.932c.035-6.366-.211-12.606-.962-18.64zm.808 26.058L43.351 356.44c4.74.483 9.578.704 14.469.695L306.035 110.33c.094-1.63.192-3.26.289-4.888.343-5.737.685-11.452.876-17.093zm-1.922 41.689L69.997 356.664c7.642-.56 15.333-1.601 22.919-2.999l212.712-210.468c-.29-4.339-.384-8.734-.35-13.159zm1.283 21.803L112.862 348.714c14.606-5.869 26.682-18.639 38.848-31.504 12.476-13.193 25.047-26.486 40.538-32.54l117.871-117.187c-1.505-5.238-2.75-10.46-3.558-15.642zm6.603 25.374L208.106 280.897c4.921-.533 9.923-.574 14.961-.303l92.892-95.304a479.705 479.705 0 01-2.795-8.075zm8.81 25.049l-78.397 80.684c2.041.316 4.079.642 6.111.967 1.976.317 3.947.632 5.908.935l70.29-70.126c-1.15-4.12-2.486-8.278-3.912-12.46zm6.126 21.541l-61.511 62.562c6.46.738 12.764 1.106 18.811.686l44.31-44.043c.39-6.242-.279-12.662-1.61-19.205z" fill="#fff"/></mask><g mask="url(#a)"><path d="M179.629 77.49v4.68l-51.48 121.319h-32.94l40.5-97.2h-48.78v-28.8h92.7z" fill="#fff"/></g></g><defs><clipPath id="clip0"><path fill="#fff" d="M.424 0h215.608v274.079H.424z"/></clipPath></defs></svg>
